P2
# 12x12 sample
12 12
255
20 35 50 65 80 95 110 125 140 155 170 185
28 43 58 73 88 103 118 133 148 163 178 193
36 51 66 81 96 111 126 141 156 171 186 201
44 59 74 89 104 119 134 149 164 179 194 209
52 67 82 97 112 127 142 157 172 187 202 217
60 75 90 105 120 135 150 165 180 195 210 225
68 83 98 113 128 143 158 173 188 203 218 233
76 91 106 121 136 151 166 181 196 211 226 241
84 99 114 129 144 159 174 189 204 219 234 249
92 107 122 137 152 167 182 197 212 227 242 255
100 115 130 145 160 175 190 205 220 235 250 255
108 123 138 153 168 183 198 213 228 243 255 255
